symbols/web/phone_locked/materialsymbolsoutlined/phone_locked_wght200gradN25fill1_20px.svg

<svg xmlns="http://www.w3.org/2000/svg" height="20" width="20"><path d="M15.521 16.438q-2.167 0-4.344-1.084Q9 14.271 7.25 12.521q-1.75-1.75-2.844-3.906-1.094-2.157-1.094-4.323 0-.354.261-.594.26-.24.615-.24h2.041q.354 0 .594.198.239.198.323.552l.437 1.98q.063.291-.021.541-.083.25-.27.396L5.5 8.833q1 1.771 2.385 3.146 1.386 1.375 3.261 2.438l1.771-1.875q.229-.23.395-.282.167-.052.438.011l1.833.375q.355.062.563.312.208.25.208.604v2.021q0 .355-.25.605t-.583.25Zm-2.75-8.313q-.271 0-.469-.198-.198-.198-.198-.489V5.062q0-.145.115-.374.114-.23.489-.292h.209v-.813q0-.625.406-1.041.406-.417 1.031-.417.625 0 1.042.417.416.416.416 1.041v.813h.209q.375.042.489.281.115.24.115.385v2.376q0 .291-.198.489t-.469.198Zm.771-3.729h1.646v-.813q0-.333-.24-.573-.24-.239-.594-.239t-.583.239q-.229.24-.229.573Z"/></svg>

<svg xmlns="http://www.w3.org/2000/svg" height="20" width="20"><path d="M15.521 16.438Q13.354 16.438 11.177 15.354Q9 14.271 7.25 12.521Q5.5 10.771 4.406 8.615Q3.312 6.458 3.312 4.292Q3.312 3.938 3.573 3.698Q3.833 3.458 4.188 3.458H6.229Q6.583 3.458 6.823 3.656Q7.062 3.854 7.146 4.208L7.583 6.188Q7.646 6.479 7.562 6.729Q7.479 6.979 7.292 7.125L5.5 8.833Q6.5 10.604 7.885 11.979Q9.271 13.354 11.146 14.417L12.917 12.542Q13.146 12.312 13.312 12.26Q13.479 12.208 13.75 12.271L15.583 12.646Q15.938 12.708 16.146 12.958Q16.354 13.208 16.354 13.562V15.583Q16.354 15.938 16.104 16.188Q15.854 16.438 15.521 16.438ZM12.771 8.125Q12.5 8.125 12.302 7.927Q12.104 7.729 12.104 7.438V5.062Q12.104 4.917 12.219 4.688Q12.333 4.458 12.708 4.396H12.917V3.583Q12.917 2.958 13.323 2.542Q13.729 2.125 14.354 2.125Q14.979 2.125 15.396 2.542Q15.812 2.958 15.812 3.583V4.396H16.021Q16.396 4.438 16.51 4.677Q16.625 4.917 16.625 5.062V7.438Q16.625 7.729 16.427 7.927Q16.229 8.125 15.958 8.125ZM13.542 4.396H15.188V3.583Q15.188 3.25 14.948 3.01Q14.708 2.771 14.354 2.771Q14 2.771 13.771 3.01Q13.542 3.25 13.542 3.583Z"/></svg>
